app/client/src/assets/icons/blueprintjs/16px/buggy.svg

<svg width="16" height="16" viewBox="0 0 16 16" fill="none" xmlns="http://www.w3.org/2000/svg">
<path fill-rule="evenodd" clip-rule="evenodd" d="M13.9285 0.628648C13.7615 0.21119 13.3364 -0.0434973 12.8895 0.00615448L3.88955 1.00615C3.57936 1.04062 3.30306 1.21793 3.14249 1.48554L0.430971 6.00473C0.18751 6.03837 3.05176e-05 6.24729 3.05176e-05 6.5V9.5C3.05176e-05 9.77615 0.223888 10 0.500031 10H3.29847C3.63908 10 3.96954 10.1159 4.23551 10.3287L6.18768 11.8904C6.27634 11.9614 6.38649 12 6.50003 12H10C10.1574 12 10.3056 11.9259 10.4 11.8L11.3 10.6C11.5833 10.2223 12.0279 10 12.5 10H15.5C15.7762 10 16 9.77615 16 9.5V5.5C16 5.34717 15.9301 5.20272 15.8103 5.10789C15.7739 5.07915 15.7342 5.05592 15.6924 5.03848L13.9285 0.628648ZM12.3605 2.094L12.3541 2.07796L9.18829 2.42971L10.3094 5.51264L12.3605 2.094ZM12.827 3.2602L11.1785 6.00765L13.6887 5.41436L12.827 3.2602ZM9.60292 6.49613L8.16555 2.54335L4.60266 2.93923L2.76619 6H3.50003C3.63931 6 3.77228 6.0581 3.86691 6.1603L6.21846 8.69998H8.13241L9.58398 6.52263C9.59002 6.51357 9.59634 6.50473 9.60292 6.49613ZM2.5 16C3.88071 16 5 14.8807 5 13.5C5 12.1193 3.88071 11 2.5 11C1.11929 11 0 12.1193 0 13.5C0 14.8807 1.11929 16 2.5 16ZM13.5 16C14.8807 16 16 14.8807 16 13.5C16 12.1193 14.8807 11 13.5 11C12.1193 11 11 12.1193 11 13.5C11 14.8807 12.1193 16 13.5 16Z"/>
</svg>

<svg xmlns="http://www.w3.org/2000/svg" width="16" height="16"><path d="M13.928.629A1 1 0 0 0 12.89.006l-9 1a1 1 0 0 0-.747.48L.431 6.005A.5.5 0 0 0 0 6.5v3a.5.5 0 0 0 .5.5h2.798c.341 0 .672.116.938.329l1.952 1.561A.5.5 0 0 0 6.5 12H10a.5.5 0 0 0 .4-.2l.9-1.2a1.5 1.5 0 0 1 1.2-.6h3a.5.5 0 0 0 .5-.5v-4a.5.5 0 0 0-.308-.462L13.928.628ZM12.36 2.094l-.006-.016-3.166.352 1.121 3.083 2.052-3.419Zm.467 1.166-1.649 2.748 2.51-.594-.861-2.154ZM9.603 6.496 8.166 2.543l-3.563.396L2.766 6H3.5a.5.5 0 0 1 .367.16L6.218 8.7h1.914l1.452-2.177a.5.5 0 0 1 .019-.027ZM2.5 16a2.5 2.5 0 1 0 0-5 2.5 2.5 0 0 0 0 5Zm11 0a2.5 2.5 0 1 0 0-5 2.5 2.5 0 0 0 0 5Z" clip-rule="evenodd"/></svg>
